X:0271
T:Sailor Laddie.
M:6/8
L:1/8
Q:3/8=120
I: || ::
Z:Jack Campin * www.campin.me.uk * 2009
K:G
g   |B>AG GDE|A>BA ABd|(e/f/g)G GDE|GAG      TB2G|
     cAc  BGB|ABA  ABd|(e/f/g)G GDE|GAG       G2||
e/f/|gag  gdB|Aaa Ta2g| def     gdB|gb/a/g/f/ gdB|
     c>de gdB|aAA  ABd|(e/f/g)G GDE|G>AG      G2:|
<end>
<start>
